!!!COM: Scriabin, Alexander
!!!OTL@@FR: Mouvement no 1
!!!OTL@@EN: Movement No. 1
!!!OPR@@FR: Sonate no 3
!!!OPR@@EN: Sonata No. 3
!!!OPS: 23
!!!ONM: 1
!!!ODT: 1897
!!!AGN: Sonata movement
**kern	**kern	**dynam
*staff2	*staff1	*staff1/2
*Ipiano	*Ipiano	*
*clefF4	*clefG2	*
*k[f#c#g#]	*k[f#c#g#]	*
*f#:	*f#:	*
*M3/4	*M3/4	*
16CC# 16C#	16r	.
=1	=1	=1
*	*^	*
8.FF# 8.F#	8.ryy	8.r	.
[16C# [16F#	[16f#	16c# 16a	.
4C#_ 4F#]	4..f#]	4B 4b	.
8.C#] 8.A	.	8.A 8.cc#	.
16CC# 16C#	16ryy	16r	.
=2	=2	=2	=2
6FF# 6F#	12r	12r	.
.	12r	12r	.
[12C# [12A [12e	[12f# [12cc#	12gg#	.
4C#] 4A] 4e]	4f#] 4cc#]	12aaL	.
.	.	12ff#	.
.	.	12cc#J	.
8.A 8.c# 8.a	8.f#	8.ee	.
16CC# 16C#	16ryy	16r	.
=3	=3	=3	=3
8.BB 8.B	8.ryy	8.r	.
[16C# [16F# [16B	[16b	16f# 16dd	.
4C#_ 4F#_ 4B]	4..b]	4e 4ee	.
8.C#] 8.F#] 8.d	.	8.d 8.ff#	.
16CC# 16C#	16ryy	16r	.
!!LO:LB:g=original
=4	=4	=4	=4
6BB 6B	12r	12r	.
.	12r	12r	.
[12C# [12F# [12d [12a	[12b [12ff#	12ccc#	.
4C#] 4F#] 4d] 4a]	4b] 4ff#]	12dddL	.
.	.	12bb	.
.	.	12ff#J	.
8.d 8.f# 8.dd	4b	8aaL	.
.	.	8gg#J	.
16CC# 16C#	.	.	.
*	*v	*v	*
=5	=5	=5
8.GG# 8.G#	8.r	.
[16B 16f# [16b	16cc# [16gg# 16ccc#	.
4B] 4e#X 4b]	4dd 4gg#] 4ddd	.
8.E#X 8.B 8.e#	8.g# 8.gg#	.
16CC# 16C#	16r	.
=6	=6	=6
*	*^	*
6AA 6A	12ryy	12r	.
.	12ryy	12r	.
[12F# [12d [12f#	[12ff#	12cc# 12ccc#	.
4F#] 4d] 4f#]	4ff#]	12bL 12bb	.
.	.	12a 12aa	.
.	.	12f#J 12ff#	.
8.c# 8.f# 8.cc#	8.ff#	8.a 8.aa	.
16CC# 16C#	16ryy	16r	.
*	*v	*v	*
=7	=7	=7
6GG# 6G#	12r	.
.	12r	.
[12B#X [12f# [12b#X	12a 12aa	.
4B#] 4f#] 4b#]	12g#L 12gg#	.
.	12f# 12ff#	.
.	12dJ 12dd	.
*	*^	*
8.G# 8.d 8.g#	8.f# 8.ff#	8.b#X	.
16CC# 16C#	16r	16ryy	.
*	*v	*v	*
!!LO:LB:g=original
=8	=8	=8
8.GG# 8.G#	8.r	.
[16G# [16c# [16g#	[16e#X 16ee#X	.
4.G#] 4.c#] 4.g#]	4.e#] 4.cc#	.
16r	8r	.
16GGG# 16GG#	.	.
=9	=9	=9
*	*^	*
8.CC# 8.C#	8.ryy	8.r	.
[16GG# [16E [16c#	[16en	16B 16g#	.
4..GG#] 4..E] 4..c#]	4..e]	4A#X 4a#X	.
.	.	8.G# 8.b	.
16GGG# 16GG#	16ryy	16r	.
=10	=10	=10	=10
6CC# 6C#	12ryy	12r	.
.	12ryy	12r	.
[12GG# [12E [12B	[12c# [12g#	12dd#X	.
4GG#] 4E] 4B]	4c#] 4g#]	12eeL	.
.	.	12cc#	.
.	.	12g#J	.
8.E 8.B 8.e	8.c#	8.b	.
16GGGn 16GGn	16ryy	16r	.
=11	=11	=11	=11
6CC# 6C#	12ryy	12r	.
.	12ryy	12r	.
[12GGn [12E	[12e	12B 12b	.
6GG_ 6E_	6e]	12A#XL 12a#X	.
.	.	12B 12b	.
12GG_ 12E_ [12B	12B [12b	12c#J 12cc#	.
8.GG] 8.E] 8.B]	4b]	12eL 12ee	.
.	.	12b 12bb	.
.	.	24r	.
16FFF# 16FF#	.	.	.
.	.	24eJk 24ee	.
!!LO:LB:g=original
=12	=12	=12	=12
8.CC# 8.C#	4b	6gn 6ggn	.
.	.	12c# 12cc#	.
16FF#	.	.	.
4E 4A#X 4e	4a#X	8gL 8gg	.
.	.	8f#J 8ff#	.
*	*v	*v	*
8.r	4r	.
16FFF# 16FF#	.	.
=13	=13	=13
*	*^	*
8.BBB 8.BB	8.ryy	8.r	.
[16FF# [16D [16B	[16d	16An 16f#	.
4..FF#] 4..D] 4..B]	4..d]	4Gn 4gn	.
.	.	8.F# 8.an	.
16FFF# 16FF#	16ryy	16r	.
=14	=14	=14	=14
6BBB 6BB	12ryy	12r	.
.	12ryy	12r	.
[12FF# [12D [12A	[12B [12f#	12cc#	.
4FF#] 4D] 4A]	4B] 4f#]	12ddL	.
.	.	12b	.
.	.	12f#J	.
8.D 8.A 8.d	8.B	8.a	.
16FFFn 16FFn	16ryy	16r	.
!!LO:LB:g=original
=15	=15	=15	=15
6BBB 6BB	12ryy	12r	.
.	12ryy	12r	.
[12FFn [12D	[12d	12B 12b	.
6FF_ 6D_	6d]	12G#L 12g#	.
.	.	12A 12a	.
12FF_ 12D_ [12A	[12a	12BJ 12b	.
8.FF] 8.D] 8.A]	4a]	12dL 12dd	.
.	.	12a 12aa	.
.	.	24r	.
16EEE 16EE	.	.	.
.	.	24dJk 24dd	.
=16	=16	=16	=16
8.BBB 8.BB	4a	6fn 6ffn	.
.	.	12B 12b	.
16EE	.	.	.
4D 4G# 4d	4g#	8f 8ff	.
.	.	4e 4ee	.
8.r	4ryy	.	.
.	.	8G# 8g#	.
16FFFn 16FFn	.	.	.
=17	=17	=17	=17
12CCnL 12Cn	6A 6e-X 6a	6ryy	.
12FFn 12Fn	.	.	.
[12AJ [12e-X [12a	12b 12bb	[12ffn	.
4A] 4e-] 4a]	12ddL 12ddd	4ff]	.
.	12ccn 12cccn	.	.
.	12aJ 12aa	.	.
8.FF 8.E-X 8.A	4a	12fnL 12ff	.
.	.	12cn 12cc	.
.	.	24r	.
16FFFn 16FF	.	.	.
.	.	24cJk 24cc	.
!!LO:LB:g=original
=18	=18	=18	=18
8.FFnL 8.Fn	8.fnL 8.a	8cnL 8ccn	.
.	.	8fJ 8ffn	.
16E-XJk 16A 16e-X	16fJk 16a	.	.
4E- 4A 4e-	4f 4a	8cL 8cc	.
.	.	[8c#XJ [8cc#X	.
8.AL	8.fL	8.c#L] 8.cc#]	.
16FFFnJk 16FF	[16aJk	[16dJk [16dd	.
=19	=19	=19	=19
6FFn 6Fn	6a]	6d] 6dd]	.
[12A [12B [12a	12cc# 12ccc#	[12aa	.
4A] 4B] 4a]	12eenL 12eeen	4aa]	.
.	12dd 12ddd	.	.
.	12aJ 12aa	.	.
8.FFL 8.D 8.A	12fnL 12ffn	4a	.
.	12d 12dd	.	.
.	24r	.	.
16FFFnJk 16FF	.	.	.
.	24dJk 24dd	.	.
=20	=20	=20	=20
8.FFnL 8.Fn	8.aL	8dL 8dd	.
.	.	8aJ 8aa	.
16DJk 16A1 16d	16aJk	.	.
*^	*	*	*
8DL 8d	4A	4..a	8.dL 8.dd	.
8CnJ 8cn	.	.	.	.
.	.	.	[16d#XJk [16dd#X	.
*v	*v	*	*	*
16BBLL 16B\	.	8.d#L] 8.dd#]	.
16BB#XJ 16B#X	.	.	.
16r	.	.	.
16EEJk 16E	[16e [16a	[16eeJk	.
=21	=21	=21	=21
6C# 6c#	6e] 6a]	6ee]	.
[12E [12c#	[12e	12A 12a	.
6E] 6c#]	6e]	12G#L 12g#	.
.	.	12A 12a	.
[12E [12A	[12a	12BJ 12b	.
8.E] 8.A]	4a]	12c#L 12cc#	.
.	.	12a 12aa	.
.	.	24r	.
16CC# 16C#	.	.	.
.	.	24c#Jk 24cc#	.
!!LO:LB:g=original
=22	=22	=22	=22
*^	*	*	*
6AA 6A	6ryy	6a	6f# 6ff#	.
[12C# [12A	12A	[12a	12e 12ee	.
4C#] 4A]	12f#L	6a]	12d#XL 12dd#X	.
.	12e	.	12e 12ee	.
.	12AJ	[12ee	12f#J 12ff#	.
8.C# 8.A	8.e	4ee]	12aL 12aa	.
.	.	.	12ee 12eee	.
.	.	.	24r	.
16ryy	16BBB 16BB	.	.	.
.	.	.	24aJk 24aa	.
=23	=23	=23	=23	=23
6ryy	6FF# 6F#	4dd#X 4aa	6cc# 6ccc#	.
[12BB	12A	.	12f# 12ff#	.
4BB]	12G#L	4ff#	8cc#L 8ccc#	.
.	12A	.	.	.
.	.	.	8bJ 8bb	.
.	12d#XJ	.	.	.
8.A	8.d# 8.b	4dd#	8g#L 8gg#	.
.	.	.	8f#J 8ff#	.
16ryy	16EE 16E	.	.	.
*	*	*v	*v	*
*v	*v	*	*
=24	=24	=24
4E 4G# 4dn 4b	8f# 8ddn 8ff#	.
.	8g#	.
8r	8cc#L	.
8E	8bJ	.
8dL	8e	.
8c#J	8ee	.
=25	=25	=25
*^	*^	*
2B	4.a	[4ee	4gg#	.
.	.	8eeL]	4.ff#	.
.	4a	8aJ	.	.
8r	.	8ddL	.	.
[8c#	8g#	8cc#J	8ee	.
=26	=26	=26	=26	=26
8c#L]	2f#	4a	4ee	.
8F#J	.	.	.	.
8BL	.	4r	8ddL	.
8AJ	.	.	8cc#J	.
8AL	[4f#	4r	8ff#L	.
8DJ	.	.	8bJ	.
!!LO:LB:g=original
=27	=27	=27	=27	=27
8G#L	8f#L]	8r	8r	.
8F#J	8BJ	[8dd	8aa	.
4E	8eL	8ddL]	8gg#L	.
.	8dJ	8g#J	8bbJ	.
4F#	[4d	8cc#L	8aaL	.
.	.	8bJ	8gg#J	.
=28	=28	=28	=28	=28
8G#L	8dL]	8bL	4.ff#	.
8AJ	8c#J	8aJ	.	.
4B	4.B	4.g#	.	.
.	.	.	4ee	.
4E	.	.	.	.
.	8g#	8b	8b	.
=29	=29	=29	=29	=29
2F#	4.e	[4b	4dd	.
.	.	8bL]	4.cc#	.
.	4.e	8eJ	.	.
8r	.	8aL	.	.
[8G#	.	8g#J	8b	.
=30	=30	=30	=30	=30
8G#L]	2.c#	2.e	4b	.
8C#J	.	.	.	.
8F#L	.	.	8aL	.
8G#J	.	.	8g#J	.
4A	.	.	8cc#L	.
.	.	.	8f#J	.
*clefG2	*clefG2	*	*	*
=31	=31	=31	=31	=31
2.A	2e 2f#	12ryy	12r	.
.	.	12ryy	12r	.
.	.	12cc# 12ccc#	[12ff#	.
.	.	12a#XL 12aa#X	4ff#]	.
.	.	12b 12bb	.	.
.	.	12cc#J 12ccc#	.	.
.	4d 4f# 4b	12ddL 12ddd	4bb	.
.	.	12bb 12bbb	.	.
.	.	24r	.	.
.	.	24bbJk 24bbb	.	.
!!LO:LB:g=original
=32	=32	=32	=32	=32
*^	*^	*	*	*
4.A	6d	4.e/	2b	6bb 6bbb	4bb	.
.	12d	.	.	12dd 12ddd	.	.
.	12c#L	.	.	8ff#L 8fff#	4bb	.
.	12d	.	.	.	.	.
4.G#	.	8ryy	.	8eeJ 8eee	.	.
.	[12eJ	.	.	.	.	.
*	*	*	*	*v	*v	*
*	*	*v	*v	*	*
.	4e/]	12bL	4r	.
.	.	12ee	.	.
.	.	24r	.	.
.	.	24eeJk	.	.
=33	=33	=33	=33	=33
*	*	*	*^	*
2.Gn\	2d 2e	6ee	12ryy	12r	.
.	.	.	12ryy	12r	.
.	.	12e	12b 12bb	[12ee	.
.	.	12bL	12g#XL 12gg#X	6ee]	.
.	.	12aJ	12a 12aa	.	.
.	.	12r	12bJ 12bb	[12aa	.
.	4ryy	4c# 4e 4a	12cc#L 12ccc#	4aa]	.
.	.	.	12aa 12aaa	.	.
.	.	.	24r	.	.
.	.	.	24aaJk 24aaa	.	.
=34	=34	=34	=34	=34	=34
6Gn\	6d/	2.a	6aa 6aaa	2aa	.
[12F#\	12A/	.	12cc# 12ccc#	.	.
6F#\]	12G#X/L	.	8eeL 8eee	.	.
.	12A	.	.	.	.
.	.	.	8ddJ 8ddd	.	.
[12Fn\	12BJ	.	.	.	.
*	*	*	*v	*v	*
8.F\]	12d/L	.	4r	.
.	12a	.	.	.
*clefF4	*clefF4	*	*	*
.	24r	.	.	.
16EE 16E\	.	.	.	.
.	24aJk	.	.	.
*	*v	*v	*	*
!!LO:LB:g=original
=35	=35	=35	=35
*	*	*^	*
6C# 6c#	6a	12ryy	12r	.
.	.	12ryy	12r	.
[12E [12c#	12c#	12a 12aa	[12cc#	.
4..E] 4..c#]	6f#X	12g#L 12gg#	6cc#]	.
.	.	12a 12aa	.	.
.	12e	12bJ 12bb	[12aa	.
.	4r	12cc#L 12ccc#	4aa]	.
.	.	12aa 12aaa	.	.
.	.	24r	.	.
16DD#X 16D#X	.	.	.	.
.	.	24aaJk 24aaa	.	.
=36	=36	=36	=36	=36
6ryy	6c# 6f# 6cc#	6aa 6aaa	4ccc#	.
[12D#X	12A	12cc# 12ccc#	.	.
4D#]	12G#L	4gg# 4ggg#	2ccc#	.
.	12A	.	.	.
.	12c#J	.	.	.
4r	12f#L	4ff# 4fff#	.	.
.	12a	.	.	.
.	24r	.	.	.
.	24aJk	.	.	.
=37	=37	=37	=37	=37
6ryy	6c# 6a	6ee	6ee 6eee	.
[12E	12c#	[12ee	12aa	.
4E]	12B#XL	2ee]	8gg#L	.
.	12c#	.	.	.
.	.	.	8bbnJ	.
.	12eJ	.	.	.
4r	12aL	.	8aaL	.
.	12cc#	.	.	.
.	.	.	8eeJ	.
.	24r	.	.	.
.	24cc#Jk	.	.	.
*v	*v	*	*	*
=38	=38	=38	=38
*	*	*^	*
4E 4d	8a\L	8cc#/L	2e 2ee	.
.	8g#J	8bJ	.	.
8.A 8.c#	4a\	8a/L	.	.
.	.	8bJ	.	.
16GG# 16G#	.	.	.	.
*	*	*v	*v	*
8.C#L 8.c#	4a	4cc#	.
16FF#Jk 16F#	.	.	.
!!LO:LB:g=original
=39	=39	=39	=39
6C# 6c#	12ryy	12r	.
.	12ryy	12r	.
[12F# [12c#\	12a 12aa	[12cc#	.
*^	*	*	*
8.F#] 8.c#]	12g#L	12g#L 12gg#	6cc#]	.
.	12f#J	12a 12aa	.	.
.	12r	12bJ 12bb	[12aa	.
16EE 16E	.	.	.	.
*v	*v	*	*	*
8.A 8.c# 8.a	12cc#L 12ccc#	4aa]	.
.	12aa 12aaa	.	.
.	24r	.	.
16DD#X 16D#X	.	.	.
.	24aaJk 24aaa	.	.
=40	=40	=40	=40
*^	*	*	*
6ryy	6c# 6f# 6cc#	6aa 6aaa	4ccc#	.
[12D#X	12A	12cc# 12ccc#	.	.
4D#]	12G#L	4gg# 4ggg#	2ccc#	.
.	12A	.	.	.
.	12c#J	.	.	.
4r	12f#L	4ff# 4fff#	.	.
.	12a	.	.	.
.	24r	.	.	.
.	24aJk	.	.	.
=41	=41	=41	=41	=41
6ryy	6c# 6a	6ee	6ee 6eee	.
[12E	12c#	[12ee	12aa	.
4E]	12B#XL	2ee]	8gg#L	.
.	12c#	.	.	.
.	.	.	8bbnJ	.
.	12eJ	.	.	.
4r	12aL	.	8aaL	.
.	12cc#	.	.	.
.	.	.	8gg#J	.
.	24r	.	.	.
.	24cc#Jk	.	.	.
=42	=42	=42	=42	=42
4E	2d	12aL	[4ff#	.
.	.	12f##X	.	.
.	.	12g#J	.	.
12F#L	.	4a	12ff#L]	.
12BBn	.	.	12a#X	.
12F#J	.	.	12bJ	.
[6E	4d	12anL	12cc#L	.
.	.	12f#X	12ee	.
24E]	.	24g#Jk	24cc#Jk	.
24AAA 24AA/	.	24ryy	[24c# [24a	.
*v	*v	*	*	*
!!LO:LB:g=original
=43	=43	=43	=43
8.EE 8.E	8.ryy	8.c#] 8.a]	.
[16E	[16e	16c# 16a	.
4..E]	4..e]	4B 4b	.
.	.	8A 8cc#	.
.	.	8ra	.
*^	*	*	*
16AAA 16AA	[16Gn [16c# [16e	16ryy	.	.
=44	=44	=44	=44	=44
[2AA [2A	6G] 6c#] 6e]	12ryy	12r	.
.	.	12ryy	12r	.
.	[12E [12c# [12gn	[12a [12ee	12bb	.
.	4E] 4c#] 4g]	4a] 4ee]	12ccc#L	.
.	.	.	12aa	.
.	.	.	12eeJ	.
*	*^	*	*	*
8.AA] 8.A\]	8.GnL 8.c#	16f#KL	4a 4cc#	4aa	.
.	.	8e	.	.	.
16AAA 16AA\	[16F#Jk [16cn	[16dJk	.	.	.
*	*v	*v	*	*	*
=45	=45	=45	=45	=45
8.AA 8.A	4F#] 4c] 4d]	8.ryy	8.r	.
[16A	.	[16ccn	16f# 16dd	.
4..A]	4ryy	4.cc]	4e 4ee	.
.	8.ryy	.	8d 8ff#	.
.	.	8ryy	8r	.
16AAA 16AA	[16Fn [16B-X [16d	.	.	.
=46	=46	=46	=46	=46
4AA 4A	6F] 6B-] 6d]	12ryy	12r	.
.	.	12ryy	12r	.
.	[12D [12B-X [12g#X	[12dd [12gg#	12eee	.
*v	*v	*	*	*
4D] 4B-] 4g#]	4dd] 4gg#]	12fffnL	.
.	.	12ddd	.
.	.	12gg#J	.
8.G# 8.d 8.g#	4ffn	8ccnL 8cccn	.
.	.	8b-XJ 8bb-X	.
16AAA 16AA	.	.	.
*	*v	*v	*
!!LO:LB:g=original
=47	=47	=47
*^	*	*
.	.	16qaLL	.
.	.	16qcc#XJJ	.
8.ryy	8.E	4aa	.
*clefG2	*clefG2	*	*
[16e	16c# 16a	.	.
4..e]	4B 4b	4.gg#	.
.	8.A 8.cc#	.	.
.	.	8ggn	.
*clefF4	*clefF4	*	*
16ryy	16AAA 16AA	.	.
=48	=48	=48	=48
*	*	*^	*
6AA 6A	6ryy	4ggn	12r	.
.	.	.	12r	.
[12Gn [12a	12e	.	12bb	.
4G] 4a]	4c#	8ff#L	12ccc#L	.
.	.	.	12aa	.
.	.	8eeJ	.	.
.	.	.	12eeJ	.
8EL	8.c# 8.gn	8ggL	4aa	.
16AJk	.	8cc#J	.	.
16AAA 16AA	16r	.	.	.
*v	*v	*	*	*
=49	=49	=49	=49
*	*	*^	*
[4AA [4A	4f#	4d 4dd	8.raa	.
.	.	.	16dd	.
4..AA] 4..A]	2d 2a	4.c# 4.cc#	4ee	.
.	.	.	4ff#	.
.	.	8cn 8ccn	.	.
16AAA 16AA	.	.	.	.
*	*	*v	*v	*
=50	=50	=50	=50
*^	*	*	*
*	*^	*	*	*
4AA 4A\	4d	4cn 4ccn	12ryy	12r	.
.	.	.	12ryy	12r	.
.	.	.	[12dd [12gg#	12eee	.
*	*v	*v	*	*	*
4d	8B-XL 8b-X	4dd] 4gg#]	12fffnL	.
.	.	.	12ddd	.
.	8FnJ 8fn	.	.	.
.	.	.	12gg#J	.
4ryy	8.G# 8.d 8.g#	4ffn	8ccL 8cccn	.
.	.	.	8b-XJ 8bb-X	.
.	16AAA 16AA	.	.	.
!!LO:LB:g=original
=51	=51	=51	=51	=51
8.E 8.e	8.ryy	8.ryy	8.r	.
*clefG2	*clefG2	*	*	*
[16e	16c# 16cc#	16a 16aa	[16ee	.
4..e]	4Bn 4bn	4bn 4bbn	4..ee]	.
.	8.A 8.a	8.cc#X 8.ccc#X	.	.
*clefF4	*clefF4	*	*	*
16AAA 16AA	16ryy	16ryy	16r	.
=52	=52	=52	=52	=52
8.E 8.e	8.ryy	8.ryy	8.r	.
16A 16a	[16c#	16e 16ee	[16cc#	.
4G# 4g#	4..c#]	4g# 4gg#	4..cc#]	.
8.F# 8.f#	.	8.a 8.aa	.	.
16AAA 16AA	16ryy	16ryy	16r	.
=53	=53	=53	=53	=53
8.E 8.e	8.ryy	4ryy	8.r	.
[16E	16e	.	16c# [16a 16cc#	.
4..E]	4d	4..a]	4d 4b 4dd	.
.	8.c#	.	8.e 8.cc# 8.ee	.
16AAA 16AA	16ryy	16ryy	16r	.
*v	*v	*	*	*
=54	=54	=54	=54
8.AA 8.A	8.ryy	8.r	.
[16AA [16A	[16f##X	16e 16cc#	.
4..AA] 4..A]	4..f##]	4d#X 4dd#X	.
.	.	8.c# 8.ee	.
16GG# 16G#	16ryy	16r	.
!!LO:LB:g=original
=55||	=55||	=55||	=55||
*^	*	*	*
8.C#	8.c#	2.g#	4ee	.
[16G#	16c#	.	.	.
4..G#]	4d#X	.	4.dd#X	.
.	8.e	.	.	.
.	.	.	8cc#	.
16FF# 16F#\	16ryy	.	.	.
*v	*v	*	*	*
=56	=56	=56	=56
*	*	*^	*
6C# 6c#	[4e\	4b/	12raa	.
.	.	.	12raa	.
[12FF# [12F#	.	.	12gg#	.
6FF#] 6F#]	6e\]	6a/	12aaL	.
.	.	.	12ff#	.
12GG# 12G#	12e\	12g#/	12cc#J	.
8BBL 8B	4e\	12g#/L	8.ee	.
.	.	12cc#	.	.
8AAJ 8A	.	.	.	.
.	.	12f#J	.	.
.	.	.	16bb	.
*	*	*v	*v	*
*	*v	*v	*
=57	=57	=57
*^	*	*
16r	4d#X	[4bb	.
16BBBLL	.	.	.
16FF#	.	.	.
16EJJ	.	.	.
12r	4.c#	8bbL]	.
12eL	.	.	.
.	.	8eeJ	.
12AJ	.	.	.
4E	.	8aaL	.
.	8B	8gg#J	.
=58	=58	=58	=58
16r	4B	8gg#L	.
16BBLL	.	.	.
16F#	.	8cc#J	.
16eJJ	.	.	.
4r	8AL	8ff#L	.
.	8G#J	8eeJ	.
8.r	12c#L	12eeL	.
.	12F#	12a	.
.	12d#XJ	12dd#XJ	.
16AA#X 16A#X	.	.	.
*v	*v	*	*
!!LO:LB:g=original
=59	=59	=59
*k[b-e-a-d-g-]	*k[b-e-a-d-g-]	*
*^	*^	*
8.E- 8.e-	8.ryy	2.b-	4gg-	.
[16B-	16e-	.	.	.
4..B-]	4f	.	4.ff	.
.	8.g-	.	.	.
.	.	.	8ee-	.
16AA- 16A-	16ryy	.	.	.
*v	*v	*	*	*
=60	=60	=60	=60
*	*	*^	*
6E- 6e-	[4g-\	4dd-/	12raa	.
.	.	.	12raa	.
[12AA- [12A-	.	.	12bb-	.
6AA-] 6A-]	6g-\]	6cc-X/	12ccc-XL	.
.	.	.	12aa-	.
12BB- 12B-	12g-\	12b-/	12ee-J	.
8D-L 8d-	4g-\	12b-/L	8.gg-	.
.	.	12ee-	.	.
8C-XJ 8c-X	.	.	.	.
.	.	12a-J	.	.
.	.	.	16ddd-	.
*	*	*v	*v	*
*	*v	*v	*
=61	=61	=61
*^	*	*
16r	4f	4.ddd-	.
16DD-LL	.	.	.
16AA-	.	.	.
16G-JJ	.	.	.
12r	4.e-	.	.
12g-L	.	.	.
.	.	8gg-	.
12c-XJ	.	.	.
4G-	.	8ccc-XL	.
.	8d-	8bb-J	.
=62	=62	=62	=62
16r	4d-	8bb-L	.
16DD-LL 16D-	.	.	.
16A-	.	8ee-J	.
16g-JJ	.	.	.
4r	8c-XL	8aa-L	.
.	8B-J	8gg-J	.
8.r	12e-L	12gg-L	.
.	12A-	12cc-X	.
.	12fJ	12ffJ	.
16CCn 16Cn	.	.	.
!!LO:LB:g=original
=63	=63	=63	=63
*	*	*^	*
8.FF 8.F	8.ryy	4a- 4aa-	2.ccn	.
16F 16f	[16c	.	.	.
4Gn 4gn	4..c]	4.gn 4.ggn	.	.
8.A- 8.a-	.	.	.	.
.	.	8f 8ff	.	.
16BBB- 16BB-	16ryy	.	.	.
*v	*v	*	*	*
=64	=64	=64	=64
[4FF [4F	4e- 4a- 4ee-	12rccc	.
.	.	12rccc	.
.	.	12ccc	.
*	*	*^	*
4..FF] 4..F]	4..d- 4..a- 4..dd-\	4ff	12ddd-L	.
.	.	.	12bb-	.
.	.	.	12ffJ	.
*	*	*v	*v	*
.	.	8.aa-	.
16AAA- 16AA-	16r	16r	.
=65	=65	=65	=65
*^	*	*	*
8.DD- 8.D-	8.ryy	4f 4ff	2.a-	.
16D- 16d-	[16A-	.	.	.
4E- 4e-	4..A-]	4.e- 4.ee-	.	.
8.F 8.f	.	.	.	.
.	.	8d- 8dd-	.	.
16GGG- 16GG-	16ryy	.	.	.
*v	*v	*	*	*
=66	=66	=66	=66
*	*	*^	*
[4DD- [4D-	4c 4cc\	4en/	12raa	.
.	.	.	12raa	.
.	.	.	12aan	.
4..DD-] 4..D-]	8B- 8b-\	4e/	12bb-L	.
.	.	.	12een	.
.	4d- 4dd-\	.	.	.
.	.	.	12b-J	.
.	.	4ryy	8ee	.
.	8r	.	16r	.
16FFF 16FF	.	.	16cc	.
!!LO:LB:g=original
=67	=67	=67	=67	=67
6D-	4An\	2f	4cc	.
12FF	.	.	.	.
12D-L	4B-\	.	4.b-	.
12F	.	.	.	.
12D-J	.	.	.	.
*	*v	*v	*	*
8d-	4r	.	.
16r	.	16r	.
16FFF 16FF	.	16a-X	.
=68	=68	=68	=68
6D-	4B- 4d-	4a-	.
12FF	.	.	.
12D-L	4r	8gnL	.
12B-	.	.	.
.	.	8g-XJ	.
12D-J	.	.	.
8d-	4r	8b-L	.
16r	.	16r	.
16FFF 16FF	.	16fJk	.
=69	=69	=69	=69
6C	4G- 4B-	4f	.
12FF	.	.	.
12CL	4r	8enL	.
12G-	.	.	.
.	.	8e-XJ	.
12CJ	.	.	.
8B-	4r	8g-L	.
16r	.	16r	.
16FFF 16FF	.	16d-Jk	.
=70	=70	=70	=70
6E-	4G- 4An	2d-	.
12FF	.	.	.
12E-L	4r	.	.
12An	.	.	.
12E-J	.	.	.
8e-	4r	4c	.
16r	.	.	.
16FFF 16FF	.	.	.
!!LO:LB:g=original
=71	=71	=71	=71
*^	*	*	*
8.D-L	4c	4dd-	8a-XL 8aa-X	.
.	.	.	8d-J 8dd-	.
16D-Jk	.	.	.	.
4..D-	8B-L	4dd-	8g-L 8gg-	.
.	8AnJ	.	8fJ 8ff	.
.	8d-L	4dd-	4f 4ff	.
.	8A-XJ	.	.	.
16FFF 16FF	.	.	.	.
=72	=72	=72	=72	=72
8.D-L	4A-	4b-	8fL 8ff	.
.	.	.	8B-J 8b-	.
16BB-Jk	.	.	.	.
4..BB-	8GnL	4b-	8enL 8een	.
.	8G-XJ	.	8e-XJ 8ee-X	.
.	8B-L	4b-	4d- 4dd-	.
.	8FJ	.	.	.
16FFF 16FF	.	.	.	.
=73	=73	=73	=73	=73
8.FFL	4F	4g-	8d-L 8dd-	.
.	.	.	8G-J 8g-	.
16FFJk	.	.	.	.
4..FF	8E-L	4g-	8cL 8cc	.
.	8DnJ	.	8B-J 8b-	.
.	8G-L	4g-	4B- 4b-	.
.	8D-XJ	.	.	.
16FFF 16FF	.	.	.	.
=74	=74	=74	=74	=74
8.FFL	4D-	4e-	8B-L 8b-	.
.	.	.	8E-J 8e-	.
16FFJk	.	.	.	.
4..FF	8CL	4e-	8AnL 8an	.
.	8C-XJ	.	8A-XJ 8a-X	.
.	8E-L	4e-	4G- 4g-	.
.	8BB-J	.	.	.
16FFF 16FF	.	.	.	.
*v	*v	*	*	*
!!LO:LB:g=original
=75	=75	=75	=75
*	*	*^	*
2FF 2F	8.rA	4r	8.raa	.
.	[16An\	.	[16d-	.
.	2A\]	4d-]	4e-	.
4EE- 4E-	.	4cn	[4f	.
*	*	*v	*v	*
=76	=76	=76	=76
2DD- 2D-	2G- 2B- 2f]	12r	.
.	.	12r	.
.	.	12cc	.
.	.	12dd-L	.
.	.	12b-	.
.	.	12fJ	.
8.CC 8.C	8.G-L 8.B- 8.en	8.g-	.
16FFF 16FF	16FJk 16An 16f	16r	.
=77	=77	=77	=77
6FF 6F	12ryy	12r	.
.	12ryy	12r	.
[12F	[12d#X	12An 12an	.
4F_	6d#]	12G#XL 12g#X	.
.	.	12A 12a	.
.	[12a	12B#XJ 12b#X	.
8.F] 8.B#X	12a]	12d#L 12dd#X	.
.	12ryy	12a 12aan	.
.	12ryy	24r	.
16EEn 16En	.	.	.
.	.	24aJk 24aa	.
=78	=78	=78	=78
4C#X 4c#X	4een	6an 6aan	.
.	.	12en 12ee	.
4En 4c# 4en	4ee	8aL 8aa	.
.	.	[8g#XJ [8gg#X	.
8.E 8.c# 8.a#X	4cc#X	8g#L] 8gg#]	.
.	.	16f##XJk 16ff##X	.
16DDD- 16DD-	.	16ra	.
*	*v	*v	*
!!LO:LB:g=original
=79	=79	=79
*k[f#c#g#]	*k[f#c#g#]	*
*	*^	*
*	*	*^	*
2DD#X 2D#X	8.rA	4r	8.raa	.
.	[16F##X\	.	[16B	.
.	2F##\]	4B]	4c#	.
4CC# 4C#	.	4A#X	[4d#X	.
*	*	*v	*v	*
=80	=80	=80	=80
2BBB 2BB	2E 2G# 2d#]	12r	.
.	.	12r	.
.	.	12a#X	.
.	.	12bL	.
.	.	12g#	.
.	.	12d#XJ	.
8.AAA#X 8.AA#X	8.EL 8.G# 8.c##X	8.e	.
16DDD#X 16DD#X	16D#XJk 16F##X 16d#	16r	.
=81	=81	=81	=81
6DD#X 6D#X	12ryy	12r	.
.	12ryy	12r	.
[12E-X	[12c#X	12Gn 12gn	.
4E-_	6c#]	12F#L 12f#	.
.	.	12G 12g	.
.	[12g	12A#XJ 12a#X	.
8.E-] 8.A#X	12g]	12c#L 12cc#	.
.	12ryy	12g 12ggn	.
.	12ryy	24r	.
16DDn 16Dn	.	.	.
.	.	24gJk 24gg	.
=82	=82	=82	=82
4BB 4B	4dd	6gn 6ggn	.
.	.	12d 12dd	.
4D 4B 4d	4dd	8gL 8gg	.
.	.	[8f#J [8ff#	.
8.D 8.B 8.g#X	4b	8f#L] 8ff#]	.
.	.	8e#XJ 8ee#X	.
16CC# 16C#	.	.	.
*	*v	*v	*
!!LO:LB:g=original
=83	=83	=83
*^	*	*
6ryy	6GG# 6G#	2.dd 2.ee#X 2.ddd	.
[12C#	12G#	.	.
4C#]	12F##XL	.	.
.	12G#	.	.
.	12BJ	.	.
4r	12e#XL	.	.
.	12g#	.	.
.	24r	.	.
.	24g#Jk	.	.
=84	=84	=84	=84
*	*^	*	*
4E#X\	2B	6g#	[2cc# [2ccc#	.
.	.	12B	.	.
4F#\	.	4f#X	.	.
*	*v	*v	*	*
8.G#	8.e#X	8cc#L] 8ccc#]	.
.	.	8bJ 8bb	.
16ryy	16DD 16D	.	.
=85	=85	=85	=85
6ryy	6FF# 6F#	4b 4bb	.
[12D	12F#	.	.
4D]	12E#XL	8aL 8aa	.
.	12F#	.	.
.	.	8g#J 8gg#	.
.	12BJ	.	.
4r	12f#L	8bL 8bb	.
.	12b	.	.
.	.	8f#J 8ff#	.
.	24r	.	.
.	24bJk	.	.
=86	=86	=86	=86
*	*^	*	*
4D 4F# 4B\	4ryy	6b	2.r	.
.	.	12d	.	.
4..D 4..B\	4E#X	8aL	.	.
.	.	8g#J	.	.
.	8.F#	8.f#	.	.
16ryy	16ryy	16CC# 16C#	.	.
*	*v	*v	*	*
!!LO:LB:g=original
=87	=87	=87	=87
6ryy	6GG# 6G#	2.dd 2.ee#X 2.ddd	.
[12C#	12G#	.	.
4C#]	12F##XL	.	.
.	12G#	.	.
.	12BJ	.	.
4r	12e#XL	.	.
.	12g#	.	.
.	24r	.	.
.	24g#Jk	.	.
=88	=88	=88	=88
*	*^	*	*
4E#X\	2B/	6g#	[2cc# [2ccc#	.
.	.	12B	.	.
4F#\	.	4f#X	.	.
*	*v	*v	*	*
8.G#	8.e#X	8cc#L] 8ccc#]	.
.	.	8bJ 8bb	.
16ryy	16DD 16D	.	.
=89	=89	=89	=89
6ryy	6FF# 6F#	4b 4bb	.
[12D	12F#	.	.
4D]	12E#XL	8aL 8aa	.
.	12F#	.	.
.	.	8g#J 8gg#	.
.	12BJ	.	.
4r	12f#L	8bL 8bb	.
.	12b	.	.
.	.	8f#J 8ff#	.
.	24r	.	.
.	24bJk	.	.
=90	=90	=90	=90
*	*^	*	*
4D 4F# 4B\	4ryy	6b	2.r	.
.	.	12d	.	.
4..D 4..B\	4E#X	8aL	.	.
.	.	8g#J	.	.
.	8.F#	8.f#	.	.
16ryy	16ryy	16DD 16D	.	.
*	*v	*v	*	*
!!LO:LB:g=original
=91	=91	=91	=91
6ryy	6AA 6A	4b#X 4bb#X	.
[12D	12A	.	.
4D]	12G#L	8g#L 8gg#	.
.	12A	.	.
.	.	8f#J 8ff#	.
.	12B#XJ	.	.
4r	12f#L	8b#L 8bb#	.
.	12a	.	.
.	.	8f#J 8ff#	.
.	24r	.	.
.	24aJk	.	.
=92	=92	=92	=92
2.D 2.B#X	6a	12r	.
.	.	12r	.
.	12B#	12a	.
.	4g#	12g#L	.
.	.	12a	.
.	.	12b#XJ	.
.	4f#	12ff#L	.
.	.	12aa	.
.	.	24r	.
.	.	24aaJk	.
=93	=93	=93	=93
*	*	*^	*
2.D 2.B#X	2f#	2.b#X	6aa	.
.	.	.	12b#	.
.	.	.	8gg#L	.
.	.	.	8ff#J	.
.	4a	.	4r	.
=94	=94	=94	=94	=94
[2D	4F#	2B#X	6a	.
.	.	.	12B#	.
.	4G#	.	8g#L	.
.	.	.	8f#J	.
*	*	*v	*v	*
8.D]	8.A	4r	.
16ryy	16CC# 16C#	.	.
*v	*v	*	*
!!LO:LB:g=original
=95	=95	=95
*	*^	*
8.FF# 8.F#	8.ryy	8.r	.
[16C# [16F#	[16f#	16c# 16a	.
4C#_ 4F#]	4..f#]	4Bn 4b	.
8.C#] 8.A	.	8.A 8.cc#	.
16CC# 16C#	16ryy	16r	.
=96	=96	=96	=96
6FF# 6F#	12ryy	12r	.
.	12ryy	12r	.
[12C# [12A [12e	[12f# [12cc#	12gg#	.
4C#] 4A] 4e]	4f#] 4cc#]	12aaL	.
.	.	12ff#	.
.	.	12cc#J	.
8.A 8.c# 8.a	8.f#	8.ee	.
16CC# 16C#	16ryy	16r	.
=97	=97	=97	=97
8.BB 8.B	8.ryy	8.r	.
[16C# [16F# [16B	[16b	16f# 16dd	.
4C#_ 4F#_ 4B]	4..b]	4e 4ee	.
8.C#] 8.F#] 8.d	.	8.d 8.ff#	.
16CC# 16C#	16ryy	16r	.
=98	=98	=98	=98
6BB 6B	12ryy	12r	.
.	12ryy	12r	.
[12C# [12F# [12d [12a	[12b [12ff#	12ccc#	.
4C#] 4F#] 4d] 4a]	4b] 4ff#]	12dddL	.
.	.	12bb	.
.	.	12ff#J	.
8.d 8.f# 8.dd	4b	8aaL	.
.	.	8gg#J	.
16CC# 16C#	.	.	.
*	*v	*v	*
!!LO:LB:g=original
=99	=99	=99
8.GG# 8.G#	8.r	.
[16B 16f# [16b	16cc# [16gg# 16ccc#	.
4B] 4e#X 4b]	4dd 4gg#] 4ddd	.
8.E#X 8.B 8.e#	8.g# 8.gg#	.
16CC# 16C#	16r	.
=100	=100	=100
*	*^	*
6AA 6A	12ryy	12r	.
.	12ryy	12r	.
[12F# [12d [12f#	12cc# 12ccc#	[12ff#	.
4F#] 4d] 4f#]	12bL 12bb	4ff#]	.
.	12a 12aa	.	.
.	12f#J 12ff#	.	.
8.c# 8.f# 8.cc#	8.a 8.aa	8.ff#	.
16CC# 16C#	16ryy	16r	.
=101	=101	=101	=101
4GG# 4G#	4ryy	8.r	.
.	.	16g#	.
12BL	2e#X	8dd#X	.
12CC#	.	.	.
.	.	4cc#	.
12C#J	.	.	.
*^	*	*	*
12BL	12ryy	.	.	.
12C#	[6C#	.	.	.
.	.	.	8a#X	.
[12BJ	.	.	.	.
*	*	*v	*v	*
*v	*v	*	*
=102	=102	=102
4C#] 4B] 4e#X	8a#XL	.
.	8f##XJ	.
8r	8a#L	.
8C#	8g#J	.
8BL	8c#	.
8A#XJ	8cc#	.
!!LO:LB:g=original
=103	=103	=103
*k[f#c#g#d#a#e#]	*k[f#c#g#d#a#e#]	*
*^	*^	*
2G#	4.f#	[4cc#	4ee#	.
.	.	8cc#L]	4.dd#	.
.	4f#	8f#J	.	.
8r	.	8bL	.	.
[8A#	8e#	8a#J	8cc#	.
=104	=104	=104	=104	=104
8A#L]	2d#	4f#	4cc#	.
8D#J	.	.	.	.
8G#L	.	4r	8bL	.
8F#J	.	.	8a#J	.
8F#L	[4d#	4r	8dd#L	.
8BBJ	.	.	8g#J	.
=105	=105	=105	=105	=105
8E#L	8d#L]	8ryy	8r	.
8D#J	8G#J	[8b	8ff#	.
4C#	8c#L	8bL]	8ee#L	.
.	8BJ	8e#J	8gg#J	.
4D#	[4B	8a#L	8ff#L	.
.	.	8g#J	8ee#J	.
=106	=106	=106	=106	=106
8E#L	8BL]	8g#L	4.dd#	.
8F#J	8A#J	8f#J	.	.
4G#	4.G#	4.e#	.	.
.	.	.	4cc#	.
4C#	.	.	.	.
.	8e#	8g#	8g#	.
=107	=107	=107	=107	=107
2D#	4.c#	[4g#	4b	.
.	.	8g#L]	4.a#	.
.	4.c#	8c#J	.	.
8r	.	8f#L	.	.
[8E#	.	8e#J	8g#	.
=108	=108	=108	=108	=108
8E#L]	2.A#	2.c#	4g#	.
8AA#J	.	.	.	.
8D#L	.	.	8f#L	.
8E#J	.	.	8e#J	.
4F#	.	.	8a#L	.
.	.	.	8d#J	.
!!LO:LB:g=original
=109	=109	=109	=109	=109
2.F#	2c# 2d#	12ryy	12r	.
.	.	12ryy	12r	.
.	.	12a# 12aa#	[12dd#	.
.	.	12f##XL 12ff##X	4dd#]	.
.	.	12g# 12gg#	.	.
.	.	12a#J 12aa#	.	.
*clefG2	*clefG2	*	*	*
.	4B 4d# 4g#	12bL 12bb	4gg#	.
.	.	12gg# 12ggg#	.	.
.	.	24r	.	.
.	.	24gg#Jk 24ggg#	.	.
=110	=110	=110	=110	=110
*^	*^	*	*	*
4.F#	6B	4.c#/	2g#	6gg# 6ggg#	4gg#	.
.	12B	.	.	12b 12bb	.	.
.	12A#L	.	.	8dd#L 8ddd#	4gg#	.
.	12B	.	.	.	.	.
4.E#	.	8ryy	.	8cc#J 8ccc#	.	.
.	[12c#J	.	.	.	.	.
.	4c#]	4ryy	12g#L	4r	4ryy	.
.	.	.	12cc#	.	.	.
.	.	.	24r	.	.	.
.	.	.	24cc#Jk	.	.	.
*	*	*v	*v	*	*	*
=111	=111	=111	=111	=111	=111
2.En\	2B 2c#	6cc#	12ryy	12r	.
.	.	.	12ryy	12r	.
.	.	12c#	12g# 12gg#	[12cc#	.
.	.	12g#L	12e#XL 12ee#X	6cc#]	.
.	.	12f#J	12f# 12ff#	.	.
.	.	12r	12g#J 12gg#	[12ff#	.
.	4ryy	4A# 4c# 4f#	12a#L 12aa#	4ff#]	.
.	.	.	12ff# 12fff#	.	.
.	.	.	24r	.	.
.	.	.	24ff#Jk 24fff#	.	.
=112	=112	=112	=112	=112	=112
6En\	6B/	2.f#	6ff# 6fff#	2ff#	.
*clefF4	*clefF4	*clefF4	*	*	*
[12D#\	12F#/	.	12a# 12aa#	.	.
6D#\]	12E#X/L	.	8cc#L 8ccc#	.	.
.	12F#	.	.	.	.
.	.	.	8bJ 8bb	.	.
[12Dn\	12G#J	.	.	.	.
8.D\]	12B/L	.	4r	4ryy	.
.	12f#	.	.	.	.
.	24r	.	.	.	.
16CC# 16C#\	.	.	.	.	.
.	24f#Jk	.	.	.	.
*	*v	*v	*	*	*
!!LO:LB:g=original
=113	=113	=113	=113	=113
6AA# 6A#	6f#	12ryy	12r	.
.	.	12ryy	12r	.
[12C# [12A#	12A#	12f# 12ff#	[12a#	.
4..C#] 4..A#]	6d#	12e#L 12ee#	6a#]	.
.	.	12f# 12ff#	.	.
.	12c#	12g#J 12gg#	[12ff#	.
.	4r	12a#L 12aa#	4ff#]	.
.	.	12ff# 12fff#	.	.
.	.	24r	.	.
16BBB#X 16BB#X	.	.	.	.
.	.	24ff#Jk 24fff#	.	.
=114	=114	=114	=114	=114
6ryy	6A# 6d# 6a#	6ff# 6fff#	4aa#	.
[12BB#X	12F#	12a# 12aa#	.	.
4BB#]	12E#L	4ee# 4eee#	2aa#	.
.	12F#	.	.	.
.	12A#J	.	.	.
4r	12d#L	4dd# 4ddd#	.	.
.	12f#	.	.	.
.	24r	.	.	.
.	24f#Jk	.	.	.
=115	=115	=115	=115	=115
6ryy	6A# 6f#	6ryy	6cc# 6ccc#	.
[12C#	12A#	[12cc#	12ff#	.
4C#]	12G##XL	2cc#]	8ee#L	.
.	12A#	.	.	.
.	.	.	8gg#XJ	.
.	12c#J	.	.	.
4r	12f#L	.	8ff#L	.
.	12a#	.	.	.
.	.	.	8cc#J	.
.	24r	.	.	.
.	24a#Jk	.	.	.
*v	*v	*	*	*
=116	=116	=116	=116
*	*	*^	*
4C# 4B	8f#\L	8a#/L	2c# 2cc#	.
.	8e#J	8g#J	.	.
8.F# 8.A#	4f#\	8f#/L	.	.
.	.	8g#J	.	.
16EE# 16E#	.	.	.	.
*	*	*v	*v	*
8.AA#L 8.A#	4f#	4a#	.
16DD#Jk 16D#	.	.	.
!!LO:LB:g=original
=117	=117	=117	=117
6AA# 6A#	12ryy	12r	.
.	12ryy	12r	.
[12D# [12A#\	12f# 12ff#	[12a#	.
*^	*	*	*
6D#] 6A#]	12e#L	12e#L 12ee#	6a#]	.
.	12d#J	12f# 12ff#	.	.
12CC# 12C#	12r	12g#J 12gg#	[12ff#	.
8.F# 8.A# 8.f#	4ryy	12a#L 12aa#	4ff#]	.
.	.	12ff# 12fff#	.	.
.	.	24r	.	.
16BBB#X 16BB#X	.	.	.	.
.	.	24ff#Jk 24fff#	.	.
=118	=118	=118	=118	=118
6ryy	6A# 6d# 6a#	6ff# 6fff#	4aa#	.
[12BB#X	12F#	12a# 12aa#	.	.
4BB#]	12E#L	4ee# 4eee#	2aa#	.
.	12F#	.	.	.
.	12A#J	.	.	.
4r	12d#L	4dd# 4ddd#	.	.
.	12f#	.	.	.
.	24r	.	.	.
.	24f#Jk	.	.	.
=119	=119	=119	=119	=119
6ryy	6A# 6f#	6ryy	6cc# 6ccc#	.
[12C#	12A#	[12cc#	12ff#	.
4C#]	12G##XL	2cc#]	8ee#L	.
.	12A#	.	.	.
.	.	.	8gg#XJ	.
.	12c#J	.	.	.
4r	12f#L	.	8ff#L	.
.	12a#	.	.	.
.	.	.	8cc#J	.
.	24r	.	.	.
.	24a#Jk	.	.	.
*v	*v	*	*	*
=120	=120	=120	=120
12r	12f#L	[4a#	.
12CC#L	12d##X	.	.
[12C#J	12f#J	.	.
2C#_ [2B	[2e#	12a#L]	.
.	.	12f##X	.
.	.	12g#J	.
.	.	12bL	.
.	.	12a#	.
.	.	12g#J	.
!!LO:LB:g=original
=121	=121	=121	=121
*^	*	*	*
6C#] 6B]	6ryy	12e#]	12gn	.
.	.	6ryy	12ggn\L	.
[12Dn	12B	.	12ff#J	.
*	*	*v	*v	*
4D]	12B-XL	12aanL	.
.	12Bn	12gg	.
.	12fnJ	12ddnJ	.
4r	4gn	12bL	.
.	.	12g	.
.	.	24r	.
.	.	24enJk	.
*v	*v	*	*
=122	=122	=122
*	*^	*
12r	12cnL	[4en	.
12GGGnL	12A#X	.	.
[12GGnJ	12cJ	.	.
2GG_ [2Fn	[2B	12eL]	.
.	.	12c#X	.
.	.	12dnJ	.
.	.	12fnL	.
.	.	12e	.
.	.	12dJ	.
=123	=123	=123	=123
12GG] 12F]	12B]	12c#	.
*	*v	*v	*
12GG#XL	12ccc#\L	.
12E#XJ	12bb#XJ	.
12BnL	12ddd#XL	.
12c#	12ccc#	.
12e#J	12aa#J	.
4b	12gg#L	.
.	12ee#	.
.	24r	.
.	24dd#Jk	.
!!LO:LB:g=original
=124	=124	=124
12r	12dd#L	.
12GG#L	12cc#	.
12E#J	12b#XJ	.
12BnL	12dd#L	.
12c#	12cc#	.
12e#J	12a#J	.
8.r	12g#L	.
.	12e#	.
.	24r	.
16GGG# 16GG#	.	.
.	[24Bn [24d#Jk	.
=125	=125	=125
8.E#	8.B] 8.d#]	.
*^	*^	*
[16GG#	16E#	[16B	16c#	.
4..GG#]	4D#	4..B]	4d#	.
.	8.C#	.	8.e#	.
16ryy	16AAAn 16AAn	[16B#X	[16F# [16f#	.
*v	*v	*	*	*
=126	=126	=126	=126
4Dn	4F#] 4B#] 4f#]	12raa	.
.	.	12raa	.
.	.	12gg#	.
4..AAn 4..C#	4..F# 4..c#	12aanL	.
.	.	12ff#	.
.	.	12anJ	.
.	.	8.ff#	.
16AAA#X 16AA#X	16ryy	[16c# [16d#X	.
=127	=127	=127	=127
*^	*	*	*
8.F##X	8.ryy	8.ryy	8.c#] 8.d#]	.
[16AA#	16F##	[16c#	16d#	.
4..AA#]	4E#	4..c#]	4e#	.
.	8.D#	.	8.f##X	.
16ryy	16BBBn 16BBn	[16c##X	[16G# [16g#	.
*v	*v	*	*	*
!!LO:LB:g=original
=128	=128	=128	=128
4En	4G#] 4c##] 4g#/]	12rbb	.
.	.	12rbb	.
.	.	12aa#	.
4..BB 4..D#	4..G# 4..d#	12bbL	.
.	.	12gg#	.
.	.	12bJ	.
.	.	4g# 4gg#	.
16BBB#X 16BB#X	16ryy	.	.
=129	=129	=129	=129
*^	*	*^	*
8.G##X 8.g##X	8.d#	4ryy	2.dd#	4g#X 4gg#X	.
16E#X 16e#X	[16d#	.	.	.	.
4F# 4f#	4..d#]	2f#\	.	4..ff#	.
8.G#X 8.g#X	.	.	.	.	.
16CC# 16C#	16ryy	.	.	16ee#	.
=130	=130	=130	=130	=130	=130
*	*^	*	*	*	*
12rFF	2G##X 2g##X	4c#	4f#\	4cc#	4ee#	.
12rFF	.	.	.	.	.	.
12C#\	.	.	.	.	.	.
12G#X\L	.	4B#X	4rA	8b#X	8dd#L	.
12f#	.	.	.	.	.	.
.	.	.	.	8rf	8ddnJ	.
12b#XJ	.	.	.	.	.	.
*	*	*	*v	*v	*	*
*	*v	*v	*	*	*
*v	*v	*	*	*
8.A# 8.c# 8.a#\	8f# 8cc#	8ff#L	.
.	8r	16r	.
16CC# 16C#	.	16cc#Jk	.
=131	=131	=131	=131
*^	*	*	*
12rFF	2G# 2g#\	4d#X 4f#	4cc#	.
12rFF	.	.	.	.
12C#	.	.	.	.
12G#L	.	4r	8b#XL	.
12d#	.	.	.	.
.	.	.	8bnJ	.
12f#J	.	.	.	.
*v	*v	*	*	*
8.bn\	4r	8dd#XL	.
.	.	16r	.
16CCC# 16CC#	.	16a#Jk	.
!!LO:LB:g=original
=132	=132	=132	=132
*	*	*^	*
[2C# [2B	2dn\	[4e#	4a#	.
.	.	4..e#]	4..g#	.
8.C#] 8.B]	8.c#\	.	.	.
16FFF# 16FF#	16ryy	16ryy	[16A# [16f#	.
*	*	*v	*v	*
=133	=133	=133	=133
*^	*	*	*
4ryy	8.CC# 8.C#	8.ryy	8.A#] 8.f#]	.
.	[16C#	[16c#	16A# 16f#	.
4..ryy	4..C#]	4.c#]	4G# 4g#	.
.	.	.	8F# 8a#	.
.	.	8ryy	8r	.
16FFF# 16FF#	[16En [16A# [16c#	.	.	.
=134	=134	=134	=134	=134
[2FF# [2F#	6E] 6A#] 6c#]	12ryy	12r	.
.	.	12ryy	12r	.
.	[12C# [12A# [12en	[12f# [12cc#	12gg#	.
.	4C#] 4A#] 4e]	4f#] 4cc#]	12aa#L	.
.	.	.	12ff#	.
.	.	.	12cc#J	.
*	*^	*	*	*
8.FF#] 8.F#\]	8.EnL 8.A#	16d#KL	4f# 4a#	4ff#	.
.	.	8c#	.	.	.
16FFF# 16FF#\	[16D#Jk [16An	[16BJk	.	.	.
*	*v	*v	*	*	*
=135	=135	=135	=135	=135
8.FF# 8.F#	4D#] 4A] 4B]	8.ryy	8.r	.
[16F#	.	[16an	16d# 16b	.
4..F#]	4ryy	4..a]	4c# 4cc#	.
.	8.ryy	.	8B 8dd#	.
.	.	.	8ra	.
16FFF# 16FF#	[16Dn [16Gn [16B	16ryy	.	.
!!LO:LB:g=original
=136	=136	=136	=136	=136
4FF# 4F#	6D] 6G] 6B]	12ryy	12r	.
.	.	12ryy	12r	.
.	[12BB [12Gn [12e#	[12b [12ee#	12ccc#	.
*v	*v	*	*	*
4BB] 4G] 4e#]	4b] 4ee#]	12dddnL	.
.	.	12bb	.
.	.	12ee#J	.
8.E# 8.B 8.e#	4ddn	8anL 8aan	.
.	.	8gnJ 8ggn	.
16FFF# 16FF#	.	.	.
*	*v	*v	*
=137	=137	=137
*^	*	*
.	.	16qf#LL	.
.	.	16qa#XJJ	.
8.C#	8.ryy	4ff#	.
*clefG2	*clefG2	*	*
[16c#	16A# 16f#	.	.
4..c#]	4G#X 4g#	4.ee#	.
.	8.F# 8.a#	.	.
.	.	8een	.
*clefF4	*clefF4	*	*
16FFF# 16FF#	16ryy	.	.
=138	=138	=138	=138
*	*	*^	*
6FF# 6F#	6ryy	4een	12r	.
.	.	.	12r	.
[12En [12f#	12c#	.	12gg#	.
4E] 4f#]	4A#	8dd#L	12aa#L	.
.	.	.	12ff#	.
.	.	8cc#J	.	.
.	.	.	12cc#J	.
8C#L	8.A# 8.en	8eeL	4ff#	.
16F#Jk	.	8a#J	.	.
16FFF# 16FF#/	16r	.	.	.
*v	*v	*	*	*
=139	=139	=139	=139
*	*	*^	*
[4FF# [4F#	4d#	4B 4b	8.rff	.
.	.	.	16b	.
4..FF#] 4..F#]	2B 2f#	4.A# 4.a#	4cc#	.
.	.	.	4dd#	.
.	.	8An 8an	.	.
16FFF# 16FF#	.	.	.	.
*	*	*v	*v	*
!!LO:LB:g=original
=140	=140	=140	=140
*^	*	*	*
*	*^	*	*	*
4FF# 4F#\	4B/	4An 4an	12ryy	12r	.
.	.	.	12ryy	12r	.
.	.	.	[12b [12ee#	12ccc#	.
*	*v	*v	*	*	*
4B	8GnL 8gn	4b] 4ee#]	12dddnL	.
.	.	.	12bb	.
.	8DnJ 8dn	.	.	.
.	.	.	12ee#J	.
4ryy	8.E# 8.B 8.e#	4ddn	8aL 8aan	.
.	.	.	8gnJ 8ggn	.
.	16FFF# 16FF#	.	.	.
=141	=141	=141	=141	=141
8.C# 8.c#	8.ryy	8.ryy	8.r	.
16A#X 16a#X	[16c#	16f# 16ff#	[16cc#	.
4G#X 4g#X	4..c#]	4g#X 4gg#X	4..cc#]	.
8.F# 8.f#	.	8.a#X 8.aa#X	.	.
16FFF# 16FF#	16ryy	16ryy	16r	.
=142	=142	=142	=142	=142
8.C# 8.c#	8.ryy	8.ryy	8.r	.
16F# 16f#	[16A#	16c# 16cc#	[16a#	.
4E# 4e#	4..A#]	4e# 4ee#	4..a#]	.
8.D# 8.d#	.	8.f# 8.ff#	.	.
16FFF# 16FF#	16ryy	16ryy	16r	.
=143	=143	=143	=143	=143
8.C# 8.c#	8.ryy	8.ryy	8.r	.
[16C#	16c#	[16f#	16A# 16f# 16a#	.
4..C#]	4B	4..f#]	4B 4g# 4b	.
.	8.A#	.	8.c# 8.a# 8.cc#	.
16FFF# 16FF#	16ryy	16ryy	16r	.
*v	*v	*	*	*
=144	=144	=144	=144
8.C# 8.c#	8.ryy	8.r	.
[16FF# [16C#	[16c#	16A# 16f#	.
2FF#] 2C#]	2c#]	4G# 4g#	.
.	.	4F# 4a#	.
*	*v	*v	*
==	==	==
*-	*-	*-
!!!system-decoration: {(*)}
!!!filter: flipper -a
!!!ENC: Bryan Jacob Bell
!!!END: November 2021 to April 2022
!!!PED: Günter Philipp
!!!PTL: Ausgewählte Klavierwerke (Edition Peters)
